X:0082
T:Charles Street Bank.
M:2/4
L:1/8
Q:1/4=104
I: :: ::
Z:Jack Campin * www.campin.me.uk * 2009
K:G
gfgf|gdBd|efgf|e2d2|gdBg|ecAc|BdDF|G2G2:|
DAFA|DBGB|DABc|c2B2|gdBd|ecAc|BdFA|G2G2:|

